X:1
T:Branle simple
C:Pierre Attaignant, 1547
Z:Bert Van Vreckem <bert.vanvreckem@gmail.com> 2004-12-30
M:2/4
L:1/4
Q:1/2=92-100
K:Am
cc | B/G/ A/c/ | B/G/ A/B/ | c3/2 e/ | d/c/ B/A/ | BG |
w:D\-_ x___ x___ J/ * S+___ J/ *
cc | B/G/ A/c/ | B/G/ A/B/ | c3/2 e/ | d/c/ B/A/ | G2  :|
w:D\-_ ... **************
|: ff | f g/a/ | g/f/ e/d/ | ed | c/d/ e/f/ | ed |
ff | f g/a/ | g/f/ e/d/ | ed | cc | d2 :|
|: f3/2 e/ | dd | cB | AA | GG | A2  :|
|: cc | B/G/ A/c/ | B/G/ A/B/ | c3/2 e/ | d/c/ B/A/ | BG |
w:D\-_ x___ x___ J/ * S+___ J/ *
cc | B/G/ A/c/ | B/G/ A/B/ | c3/2 e/ | d/c/ B/A/ | G2  :|
